X: 38580
T: Stompin Laura
R: strathspey
M: 4/4
K: Dminor
D<DD>E F>EF>G|A<dd>c d2 d>e|f>ed>f e>dc>A|c<cA>G A<AF>E|
D<DD>E F>EF>G|A<dd>c d3 e|d>cA>c A<cc>A|=B<BA>G A<AF>E:|
A<dd>A A<cc>A|A<dd>A c>AG>F|A<dd>c d>ef>g|a>fg>e f<dd>c|
A<dd>A A<cc>A|A<dd>A c>AG>F|D<CD>E F>EF>G|A<dd>c d2 d>c:|

